packages/sources/assets/src/assets/mb-may.svg

<svg width="58" height="40" viewBox="0 0 58 40" fill="none" xmlns="http://www.w3.org/2000/svg">
<rect x="0.5" y="0.5" width="57" height="39" rx="3.5" fill="white" stroke="#F3F3F3"/>
<path fill-rule="evenodd" clip-rule="evenodd" d="M21.5474 4H38.5929C39.7918 4 40.7715 5.03671 40.7715 6.30575V7.40164C40.7715 8.96 38.6608 8.95342 38.6608 7.40164V6.81644C38.6608 6.43236 38.3501 6.12066 37.966 6.11945H20.8833C20.4997 6.12186 20.1897 6.43285 20.1885 6.81644V7.40384C20.1885 8.95342 18.1786 8.93808 18.1786 7.4389V6.30575C18.1786 5.03671 19.1583 4 20.3551 4H21.5474ZM29.3633 29.7008H40.4186C42.9435 29.7008 42.9677 27.0181 42.7112 25.6921C42.5709 24.8022 41.0586 24.8153 40.892 25.6921V26.7266C40.8896 27.2001 40.5064 27.5834 40.0329 27.5858H18.8362C18.3621 27.5845 17.9782 27.2006 17.977 26.7266V25.6921C17.8104 24.8153 16.2981 24.8022 16.1578 25.6921C15.8992 27.0181 15.9255 29.7008 18.4504 29.7008H29.3633Z" fill="#D60510"/>
<path fill-rule="evenodd" clip-rule="evenodd" d="M36.1972 15.8203H37.9507V15.8006C38.7679 15.6734 39.3711 14.9706 39.3731 14.1436C39.3707 13.2186 38.6214 12.4693 37.6964 12.4669H34.1567V21.234H38.6586C39.6134 21.2304 40.3865 20.4573 40.3901 19.5025C40.3877 18.5472 39.6139 17.7734 38.6586 17.771H37.966H36.2126C35.6761 17.7686 35.2418 17.3343 35.2394 16.7979C35.2418 16.2614 35.6761 15.8271 36.2126 15.8247L36.1972 15.8203ZM40.3419 16.6817C41.5363 17.2151 42.314 18.3918 42.3364 19.6998C42.3364 21.5562 40.7167 23.0729 38.7353 23.0729H33.1835C32.682 23.0878 32.2614 22.6974 32.2389 22.1962V11.6274C32.2413 11.1156 32.6563 10.7015 33.1682 10.7003H37.7907C39.7419 10.7051 41.3232 12.2844 41.3304 14.2357C41.33 15.1482 40.9757 16.0251 40.3419 16.6817Z" fill="#373536"/>
<path d="M24.5139 33.0527C24.423 33.3944 24.3269 33.7591 24.2256 34.1467C24.1295 34.5328 24.0276 34.904 23.9306 35.2575C23.8335 35.6111 23.7431 35.9199 23.6557 36.1878C23.6007 36.3765 23.528 36.56 23.4385 36.7358C23.3366 36.9107 23.1559 36.9972 22.8993 36.9972C22.804 36.9939 22.7094 36.9795 22.6177 36.9544C22.4918 36.9174 22.3873 36.8315 22.3294 36.7172C22.2382 36.5324 22.1654 36.3395 22.1121 36.1413C22.0256 35.8557 21.9353 35.5273 21.8373 35.1552C21.7392 34.7831 21.645 34.3886 21.5489 33.9737C21.4528 33.5588 21.3654 33.1727 21.2885 32.8145C21.2116 32.4564 21.1462 32.1531 21.0963 31.9028C21.0463 31.6526 21.0165 31.5028 21.0098 31.4516C21.0044 31.4303 21.0012 31.4085 21.0001 31.3865V31.3493C20.9971 31.2496 21.0435 31.1545 21.1251 31.0935C21.2132 31.0286 21.322 30.9957 21.4326 31.0004C21.5317 30.9966 21.6296 31.0212 21.7142 31.0711C21.7945 31.1326 21.8488 31.2202 21.8671 31.3177C21.8671 31.3298 21.8863 31.4209 21.9199 31.5875C21.9536 31.754 22.0016 31.9698 22.0554 32.2285C22.1093 32.4871 22.1717 32.7801 22.239 33.1039C22.3063 33.4276 22.3764 33.7551 22.4514 34.0863C22.5264 34.4175 22.5994 34.7375 22.6734 35.0491C22.7474 35.3608 22.8157 35.625 22.881 35.8473C22.9445 35.638 23.0146 35.3961 23.0934 35.1264C23.1722 34.8566 23.2482 34.5775 23.3251 34.2891C23.4019 34.0007 23.475 33.7132 23.5461 33.4239C23.6172 33.1346 23.6826 32.8657 23.7441 32.6192C23.8056 32.3726 23.8575 32.154 23.9027 31.9596C23.9479 31.7652 23.9825 31.6238 24.0094 31.5298C24.0625 31.2999 24.2775 31.1395 24.5207 31.1484C24.6461 31.1437 24.7693 31.1819 24.8686 31.2563C24.9561 31.3261 25.0167 31.4225 25.0406 31.5298C25.113 31.8343 25.1902 32.1754 25.2723 32.5531C25.3549 32.9253 25.4433 33.3067 25.5327 33.6918C25.6221 34.077 25.7173 34.4537 25.8114 34.8231C25.9056 35.1924 26.0037 35.5199 26.093 35.8036C26.1565 35.5813 26.2266 35.3143 26.3006 35.0054C26.3746 34.6966 26.4487 34.3747 26.5255 34.0453C26.6024 33.716 26.6764 33.3941 26.7476 33.0694C26.8187 32.7448 26.8831 32.4573 26.9398 32.1996C26.9965 31.9419 27.0436 31.7345 27.0791 31.5717C27.1147 31.4089 27.132 31.3261 27.132 31.3205C27.15 31.2225 27.2052 31.1346 27.2867 31.0739C27.3703 31.0241 27.4674 30.9995 27.5655 31.0032C27.6764 30.9984 27.7855 31.0313 27.874 31.0963C27.9559 31.1571 28.0027 31.2522 27.9999 31.3521V31.3893C27.9988 31.4113 27.9956 31.4331 27.9903 31.4544C27.9855 31.5056 27.9537 31.6535 27.8942 31.9056C27.8346 32.1577 27.774 32.4638 27.6971 32.8173C27.6202 33.1709 27.5328 33.5616 27.4357 33.9718C27.3386 34.3821 27.2435 34.7766 27.1531 35.1478C27.0628 35.5189 26.9696 35.8473 26.8821 36.1302C26.8286 36.3268 26.7559 36.5181 26.6649 36.7014C26.605 36.8186 26.4991 36.9077 26.3708 36.9488C26.2792 36.9784 26.1838 36.9956 26.0873 37C26.048 36.9992 26.0089 36.9961 25.97 36.9907C25.9142 36.9828 25.8592 36.97 25.8057 36.9526C25.744 36.9327 25.6859 36.9035 25.6336 36.866C25.574 36.824 25.5271 36.7671 25.4981 36.7014C25.4139 36.5116 25.3445 36.316 25.2905 36.1162C25.2107 35.8427 25.1223 35.5348 25.0301 35.1906C24.9378 34.8463 24.8446 34.4863 24.7552 34.1105C24.6658 33.7346 24.5812 33.383 24.5053 33.0555" fill="#373536"/>
<path fill-rule="evenodd" clip-rule="evenodd" d="M29.045 36.1034C29.1182 35.8505 29.2029 35.5753 29.298 35.2778H31.6866C31.7081 35.345 31.7291 35.4112 31.7498 35.4762C31.8208 35.6992 31.8876 35.9093 31.9538 36.1044C32.0394 36.3563 32.1155 36.5683 32.1782 36.7283C32.2033 36.8043 32.2475 36.873 32.3066 36.9282C32.3765 36.9801 32.4634 37.0053 32.551 36.9988C32.6723 37.0073 32.7921 36.9689 32.8848 36.8919C32.9612 36.8206 33.0031 36.7209 32.9998 36.6176C32.999 36.5764 32.9926 36.5354 32.9808 36.4958C32.9693 36.4553 32.9459 36.3865 32.912 36.2865C32.8899 36.2213 32.8632 36.1429 32.8325 36.0504C32.7903 35.9236 32.7425 35.7845 32.69 35.6318C32.6456 35.5024 32.5978 35.3633 32.5472 35.2136C32.4369 34.8873 32.3133 34.5339 32.1792 34.1574C32.0451 33.7808 31.9091 33.4107 31.7732 33.0472C31.6372 32.6836 31.5069 32.3415 31.3833 32.0328C31.2597 31.7241 31.1532 31.4749 31.0628 31.2889C31.0297 31.1893 30.9551 31.1079 30.8574 31.0648C30.6302 30.9817 30.3804 30.9784 30.1509 31.0555C30.0583 31.1008 29.9854 31.177 29.9455 31.2703C29.8043 31.5239 29.6804 31.7864 29.5747 32.056C29.4406 32.3805 29.3046 32.732 29.1639 33.1067C29.0231 33.4814 28.8872 33.8626 28.7578 34.2457C28.6984 34.4217 28.6414 34.5916 28.5866 34.7551C28.522 34.9476 28.4604 35.1312 28.4012 35.3057C28.2919 35.6283 28.2063 35.898 28.1388 36.1146C28.0713 36.3312 28.0313 36.4586 28.019 36.4949C27.9763 36.6318 28.0066 36.7806 28.0998 36.891C28.1862 36.9696 28.3028 37.0085 28.4203 36.9979C28.6072 37.0133 28.7805 36.9014 28.8396 36.7273C28.9033 36.5683 28.9718 36.3563 29.045 36.1034ZM31.0362 33.3577C31.156 33.6943 31.2825 34.0653 31.4166 34.4679H29.5956C29.7278 34.0653 29.8542 33.6943 29.9712 33.3577C30.0897 33.0199 30.2124 32.6988 30.3392 32.3945C30.3658 32.3387 30.3923 32.2716 30.4215 32.1979C30.4279 32.1819 30.4343 32.1656 30.4409 32.149C30.4561 32.0959 30.4769 32.0445 30.5027 31.9956C30.5062 32.0067 30.5147 32.0289 30.5286 32.0649C30.5379 32.089 30.5495 32.1192 30.5636 32.1564C30.5988 32.2494 30.6321 32.3266 30.6635 32.3945C30.7909 32.6985 30.9164 33.0211 31.0362 33.3577Z" fill="#373536"/>
<path d="M34.5971 34.6551C34.5666 34.6233 34.5386 34.5891 34.5132 34.5528C34.4808 34.5117 34.451 34.4685 34.4238 34.4235C34.3399 34.2998 34.2506 34.1501 34.1514 33.9724C34.0523 33.7948 33.954 33.6078 33.8549 33.4097C33.7557 33.2116 33.662 33.0098 33.57 32.8089C33.478 32.608 33.3913 32.421 33.319 32.2508C33.2466 32.0806 33.1796 31.9253 33.1261 31.7997C33.086 31.7137 33.0529 31.6244 33.0269 31.5328C33.0171 31.5104 33.0097 31.487 33.0046 31.463C33.0017 31.4399 33.0002 31.4166 33.0001 31.3933C32.9975 31.2881 33.0377 31.1868 33.1109 31.1142C33.1961 31.0353 33.3079 30.9949 33.4217 31.0017C33.5156 30.9919 33.6088 31.026 33.6763 31.0947C33.7233 31.1497 33.7611 31.2126 33.7879 31.2807C33.7995 31.3133 33.829 31.3793 33.8772 31.4844C33.9255 31.5895 33.9773 31.7207 34.0425 31.875C34.1077 32.0294 34.1827 32.2015 34.2658 32.3866C34.3488 32.5717 34.4355 32.7586 34.523 32.9363C34.6105 33.1139 34.6936 33.2869 34.7731 33.4525C34.8407 33.5924 34.9171 33.7276 35.0017 33.8571C35.1367 33.6379 35.2596 33.4109 35.3697 33.1772C35.5001 32.9037 35.6261 32.6349 35.7449 32.3699C35.8637 32.1048 35.9673 31.8657 36.0548 31.6621C36.1423 31.4584 36.1932 31.33 36.212 31.2807C36.2399 31.2132 36.2776 31.1504 36.3236 31.0947C36.3914 31.0258 36.4849 30.9918 36.5791 31.0017C36.6927 30.9948 36.8042 31.0353 36.889 31.1142C36.9622 31.1868 37.0024 31.2881 36.9998 31.3933C37.0006 31.4166 36.9991 31.44 36.9953 31.463C36.9902 31.4868 36.9833 31.5101 36.9748 31.5328L36.8712 31.8025C36.8211 31.9327 36.7568 32.0815 36.6809 32.2582C36.605 32.435 36.5237 32.6201 36.4317 32.8163C36.3397 33.0126 36.2433 33.2181 36.1459 33.4172C36.0485 33.6162 35.9485 33.805 35.8494 33.9845C35.7502 34.164 35.6591 34.3166 35.5761 34.4403C35.5255 34.5165 35.4684 34.5878 35.4055 34.6533V36.5814C35.41 36.694 35.3692 36.8036 35.2929 36.8836C35.1277 37.0388 34.8766 37.0388 34.7115 36.8836C34.6349 36.8037 34.5938 36.6942 34.598 36.5814L34.5971 34.6551Z" fill="#373536"/>
<path d="M31.3578 22.0186C31.4232 22.6305 30.9801 23.1795 30.3682 23.2449C29.7563 23.3102 29.2073 22.8672 29.1419 22.2553L28.2301 13.8542L24.9951 22.0756V22.0975V22.115V22.1325V22.1479V22.1654C24.939 22.2749 24.8649 22.3742 24.7759 22.4591L24.7584 22.4745C24.7001 22.5278 24.6353 22.5735 24.5655 22.6104L24.5458 22.6213H24.526H24.5129H24.4997H24.4866H24.4734H24.4581H24.4449C24.3399 22.6586 24.2297 22.6793 24.1184 22.6827H24.0373C23.912 22.6782 23.7883 22.653 23.6712 22.6082H23.6559H23.6405H23.6252H23.6121H23.5989H23.5792L23.5616 22.5972H23.5507C23.4903 22.5628 23.4331 22.5232 23.3797 22.4789L23.3425 22.446L23.3162 22.4197C23.3072 22.4096 23.2977 22.4001 23.2877 22.3912L23.2548 22.3539C23.209 22.3016 23.1693 22.2443 23.1364 22.183V22.1654V22.1457V22.1325V22.1194V22.1062V22.0909V22.0756L19.68 13.8542L18.766 22.2553C18.6885 22.8558 18.1454 23.2843 17.5434 23.2199C16.9414 23.1555 16.5011 22.6219 16.5523 22.0186L17.6285 12.1161C17.642 12.0001 17.6662 11.8857 17.7008 11.7742C17.735 11.6624 17.7805 11.5545 17.8367 11.452C18.1159 10.9273 18.6307 10.5691 19.2197 10.4898H19.2811C19.3716 10.4733 19.4632 10.4631 19.5551 10.4591C19.6687 10.4648 19.7816 10.4802 19.8926 10.5052C20.4825 10.6413 20.9668 11.0607 21.1858 11.6252L23.954 18.6279L26.709 11.6317C26.9284 11.0667 27.4136 10.6472 28.0044 10.5117C28.1152 10.4845 28.2281 10.4669 28.3419 10.4591C28.4353 10.4526 28.5291 10.4526 28.6225 10.4591H28.6838C29.2805 10.5404 29.8 10.9078 30.0756 11.4432C30.1307 11.549 30.1754 11.6599 30.2093 11.7742C30.2441 11.8864 30.2683 12.0016 30.2816 12.1183L31.3578 22.0186Z" fill="#373536"/>
</svg>

<svg width="58" height="40" fill="none" xmlns="http://www.w3.org/2000/svg"><rect x=".5" y=".5" width="57" height="39" rx="3.5" fill="#fff" stroke="#F3F3F3"/><path fill-rule="evenodd" clip-rule="evenodd" d="M21.547 4h17.046c1.199 0 2.178 1.037 2.178 2.306v1.096c0 1.558-2.11 1.551-2.11 0v-.586a.697.697 0 0 0-.695-.697H20.883a.7.7 0 0 0-.694.697v.588c0 1.55-2.01 1.534-2.01.035V6.306c0-1.27.98-2.306 2.176-2.306h1.192Zm7.816 25.7H40.42c2.525 0 2.549-2.682 2.292-4.008-.14-.89-1.652-.877-1.819 0v1.035a.864.864 0 0 1-.86.859H18.837a.861.861 0 0 1-.859-.86v-1.034c-.167-.877-1.679-.89-1.82 0-.258 1.326-.232 4.009 2.293 4.009h10.913Z" fill="#D60510"/><path fill-rule="evenodd" clip-rule="evenodd" d="M36.197 15.82h1.754v-.02a1.681 1.681 0 0 0 1.422-1.656 1.681 1.681 0 0 0-1.677-1.677h-3.54v8.767h4.503a1.738 1.738 0 0 0 1.731-1.732 1.736 1.736 0 0 0-1.731-1.731h-2.446a.978.978 0 0 1-.974-.973.978.978 0 0 1 .974-.973l-.016-.005Zm4.145.862a3.369 3.369 0 0 1 1.994 3.018c0 1.856-1.62 3.373-3.6 3.373h-5.552a.918.918 0 0 1-.945-.877V11.627a.932.932 0 0 1 .93-.927h4.622a3.548 3.548 0 0 1 3.54 3.536 3.523 3.523 0 0 1-.99 2.446Z" fill="#373536"/><path d="M24.514 33.053c-.091.341-.187.706-.288 1.094-.096.386-.198.757-.295 1.11-.098.354-.188.663-.275.93a3.152 3.152 0 0 1-.217.549c-.102.175-.283.261-.54.261a1.228 1.228 0 0 1-.281-.043.47.47 0 0 1-.289-.237 3.15 3.15 0 0 1-.217-.576 28.654 28.654 0 0 1-.275-.986 40.75 40.75 0 0 1-.288-1.181 74.511 74.511 0 0 1-.26-1.16c-.077-.358-.143-.66-.193-.911a12.376 12.376 0 0 1-.096-.516v-.038a.308.308 0 0 1 .125-.256.484.484 0 0 1 .308-.093.519.519 0 0 1 .281.071c.08.062.135.15.153.247 0 .012.02.103.053.27.034.166.082.382.135.64.054.26.117.552.184.876.067.324.137.651.212.982.075.331.148.651.222.963.074.312.143.576.208.798.064-.209.134-.45.212-.72a46.265 46.265 0 0 0 .453-1.702l.198-.806c.062-.246.114-.465.159-.66.045-.194.08-.335.106-.43a.502.502 0 0 1 .512-.38.547.547 0 0 1 .348.107c.087.07.148.166.172.274.072.304.15.645.231 1.023.083.372.171.754.26 1.139.09.385.185.762.28 1.131.094.37.192.697.281.98.064-.222.134-.489.208-.798.074-.308.148-.63.225-.96.076-.329.15-.65.222-.976.07-.324.135-.612.192-.87.056-.257.104-.464.14-.627.035-.163.052-.246.052-.252a.398.398 0 0 1 .155-.246.508.508 0 0 1 .279-.07c.11-.006.22.027.308.092a.308.308 0 0 1 .126.256v.037a5.397 5.397 0 0 1-.106.516c-.06.253-.12.559-.197.912-.077.354-.164.745-.261 1.155-.097.41-.192.805-.283 1.176-.09.37-.183.7-.27.982a3.137 3.137 0 0 1-.218.571.5.5 0 0 1-.294.248c-.092.03-.187.047-.284.051a1 1 0 0 1-.281-.047.624.624 0 0 1-.172-.087.399.399 0 0 1-.136-.165 4.047 4.047 0 0 1-.207-.585 42.611 42.611 0 0 1-.536-2.005c-.09-.376-.174-.728-.25-1.055" fill="#373536"/><path fill-rule="evenodd" clip-rule="evenodd" d="M29.045 36.103c.073-.253.158-.528.253-.825h2.389l.063.198c.07.223.138.433.204.628.085.252.161.464.224.624a.48.48 0 0 0 .129.2.36.36 0 0 0 .244.07.471.471 0 0 0 .334-.106.36.36 0 0 0 .115-.274.458.458 0 0 0-.02-.122c-.01-.04-.034-.11-.068-.21l-.08-.236a46.32 46.32 0 0 0-.142-.418l-.143-.418a69.893 69.893 0 0 0-.774-2.167 48.398 48.398 0 0 0-.39-1.014 11.95 11.95 0 0 0-.32-.744.375.375 0 0 0-.206-.224 1.069 1.069 0 0 0-.706-.01.427.427 0 0 0-.206.215 6.47 6.47 0 0 0-.37.786 35.95 35.95 0 0 0-.817 2.19l-.171.51-.186.55c-.11.322-.195.592-.262.809l-.12.38a.42.42 0 0 0 .08.396.42.42 0 0 0 .321.107.406.406 0 0 0 .42-.27c.063-.16.132-.372.205-.625Zm1.991-2.745c.12.336.246.707.38 1.11h-1.82c.132-.403.258-.774.375-1.11.119-.338.241-.66.368-.963.027-.056.053-.123.083-.197l.019-.049a.802.802 0 0 1 .062-.153l.026.069.035.091a18.856 18.856 0 0 1 .473 1.201Z" fill="#373536"/><path d="M34.597 34.655a.86.86 0 0 1-.084-.102 6.213 6.213 0 0 1-.362-.58 14.486 14.486 0 0 1-.581-1.164c-.092-.201-.179-.388-.251-.558l-.193-.451a1.785 1.785 0 0 1-.1-.267.361.361 0 0 1-.021-.07.58.58 0 0 1-.005-.07.38.38 0 0 1 .11-.279.42.42 0 0 1 .312-.112.311.311 0 0 1 .254.093.656.656 0 0 1 .112.186c.012.032.041.098.09.203.047.105.1.237.164.391a25.127 25.127 0 0 0 .481 1.061l.25.517c.068.14.144.275.229.404a6.96 6.96 0 0 0 .368-.68 38.078 38.078 0 0 0 .685-1.515c.087-.204.138-.332.157-.381a.73.73 0 0 1 .112-.186.312.312 0 0 1 .255-.093.417.417 0 0 1 .31.112.38.38 0 0 1 .11.28.354.354 0 0 1-.024.139l-.104.27c-.05.13-.114.278-.19.455a18.32 18.32 0 0 1-.25.558 32.31 32.31 0 0 1-.285.601c-.098.2-.197.388-.297.567-.099.18-.19.333-.273.456-.05.077-.108.148-.17.213v1.928a.414.414 0 0 1-.113.303.421.421 0 0 1-.581 0 .415.415 0 0 1-.114-.303v-1.926Zm-3.239-12.636a1.114 1.114 0 1 1-2.216.236l-.912-8.4-3.235 8.22v.09c-.056.11-.13.21-.22.294l-.017.015a.93.93 0 0 1-.192.136l-.02.011h-.101a1.073 1.073 0 0 1-.327.062h-.08a1.139 1.139 0 0 1-.367-.075h-.092l-.017-.01h-.011a1.191 1.191 0 0 1-.171-.12l-.037-.032-.027-.026a.348.348 0 0 0-.028-.029l-.033-.037a.919.919 0 0 1-.119-.171v-.107l-3.456-8.222-.914 8.401a1.113 1.113 0 0 1-2.214-.236l1.076-9.903a1.89 1.89 0 0 1 .209-.664 1.844 1.844 0 0 1 1.383-.962h.061c.09-.017.182-.027.274-.03a1.828 1.828 0 0 1 1.63 1.166l2.769 7.002 2.755-6.996c.22-.565.705-.985 1.295-1.12a2.021 2.021 0 0 1 .618-.053h.062a1.846 1.846 0 0 1 1.525 1.315c.035.112.06.228.073.344l1.076 9.9Z" fill="#373536"/></svg>
